X:1
T:Missionary Herald, SM
T:Missionary Herald, SM
T:A Compilation of Genuine Church Music, 1835
T:Public Domain Courtesy of the Cyber Hymnal™
C:A Compilation of Genuine Church Music, 1835
Z:Public Domain
Z:Courtesy of the Cyber Hymnal™
%%score ( 1 2 ) ( 3 4 )
L:1/8
Q:1/4=100
M:2/4
K:A
V:1 treble 
V:2 treble 
V:3 bass 
V:4 bass 
V:1
 A2 | ([Ac][Bd]) ([ce][df]) | ([ce][Bd]) ([Ac]B) | A3 [GB] | ([Ac][GB]) ([Fc][Af]) | [Ge]2 [F^d]2 | %6
 [Ge]4 | ([Ae]>[Bd]) cc | [Bf][Ae] [Fd][Ac] | !fermata![GB]2 (e>d) | ([Ac]>[GB] [FA])[Bd] | %11
 [Ac]2 [GB]2 | !fermata!A4 |] %13
V:2
 A2 | x4 | x4 | A3 x | x4 | x4 | x4 | x2 cc | x4 | x2 G2 | x4 | x4 | A4 |] %13
V:3
 A,2 | (A,G,) ([C,A,][D,B,]) | (A,F) (ED) | [A,,C]3 [E,E] | E2 C2 | B,2 [B,,B,]2 | [E,B,]4 | %7
 C>[B,C] [A,E][A,E] | D[CE] [B,F][A,E] | [E,E]2 B,2 | ([A,C]>[E,B,] [A,C])[D,F] | [E,E]2 [E,E]2 | %12
 [A,,C]4 |] %13
V:4
 A,2 | A,2 x2 | E,2 E,2 | x4 | (A,G,) (A,F,) | B,2 x2 | x4 | C3/2 x5/2 | D x3 | x2 (G,>E,) | x4 | %11
 x4 | x4 |] %13

